FALSE_HEATMAP_v2.cube
TITLE "Generated by Resolve"
LUT_3D_SIZE 33
0 0 0
0 0 0.00978103
0 0 0.0288396
0 0 0.0513008
0 0 0.0724651
0 0 0.0934615
0 0 0.112261
0 0 0.129519
0 0 0.145571
0 0 0.160632
0 0 0.174884
0 0 0.18822
0 0 0.201984
0 0 0.215824
0 0 0.229679
0 0 0.24361
0 0 0.257588
0 0 0.271641
0 0 0.285725
0 0 0.297322
0 0 0.30518
0 0 0.313573
0 0 0.322698
0 0 0.332616
0 0 0.343328
0 0 0.354788
0 0 0.367102
0 0 0.380301
0 0 0.394232
0 0 0.408927
0 0 0.42417
0 0 0.43978
0 0 0.455467
0 0 0.0299229
0 0 0.0456092
0 0 0.100618
0 0 0.11873
0 0 0.135454
0 0 0.151095
0 0 0.165835
0 0 0.179385
0 0 0.193118
0 0 0.206943
0 0 0.220813
0 0 0.234745
0 0 0.248737
0 0 0.262776
0 0 0.276844
0 0 0.290608
0 0 0.300267
0 0 0.308232
0 0 0.316945
0 0 0.326345
0 0 0.336522
0 0 0.347524
0 0 0.359319
0 0 0.371969
0 0 0.385382
0 0 0.399634
0 0 0.414542
0 0 0.429923
0 0 0.445609
0 0 0.461204
0 0 0.476341
0 0 0.48983
0 0 0.501701
0 0.0011902 0.0556344
0 0 0.0751812
0 0 0.0946365
0 0 0.170687
0 0 0.183963
0 0 0.197604
0 0 0.21178
0 0 0.225574
0 0 0.239429
0 0 0.253376
0 0 0.267781
0 0 0.281849
0 0 0.294499
0 0 0.303075
0 0 0.311437
0 0 0.320409
0 0 0.330068
0 0 0.34049
0 0 0.351858
0 0 0.363958
0 0 0.376913
0 0 0.390646
0 0 0.405112
0 0 0.420233
0 0 0.435737
0 0 0.451438
0 0 0.46688
0 0 0.481498
0 0 0.494362
0 0 0.505653
0 0 0.515923
0 0 0.526116
0 0 0.5411
0 0.00656138 0.0681773
0 0.00230411 0.0931411
0 0 0.109468
0 0 0.125963
0 0 0.221027
0 0 0.244144
0 0 0.258152
0 0 0.272221
0 0 0.286366
0 0 0.297871
0 0 0.305776
0 0 0.314305
0 0 0.323507
0 0 0.333532
0 0 0.344289
0 0 0.355886
0 0 0.3682
0 0 0.381445
0 0 0.395468
0 0 0.410163
0 0 0.425406
0 0 0.441032
0 0 0.456657
0 0 0.471946
0 0 0.486
0 0 0.498314
0 0 0.509133
0 0 0.519173
0 0 0.530037
0 0 0.546944
0 0 0.562005
0 0 0.577005
0 0 0.592157
0 0.0126802 0.0777752
0 0.0102541 0.100511
0 0.00604257 0.119173
0 0.000671397 0.132326
0 0 0.142092
0 0 0.254505
0 0 0.300496
0 0 0.308598
0 0 0.317311
0 0 0.326848
0 0 0.337133
0 0 0.348196
0 0 0.360143
0 0 0.372885
0 0 0.38645
0 0 0.400717
0 0 0.415671
0 0 0.431037
0 0 0.446738
0 0 0.462287
0 0 0.477317
0 0 0.490654
0 0 0.502327
0 0 0.512734
0 0 0.522774
0 0 0.535592
0 0 0.552377
0 0 0.567285
0 0 0.582284
0 0 0.597482
0 0 0.612848
0 0 0.628504
0 0 0.644297
0 0.0180362 0.0857252
0 0.0172274 0.104051
0 0.0142977 0.124285
0 0.00970474 0.138689
0 0.00366217 0.148043
0 0 0.15433
0 0 0.272068
0 0 0.329488
0 0 0.351873
0 0 0.364126
0 0 0.377188
0 0 0.390967
0 0 0.405692
0 0 0.42089
0 0 0.4365
0 0 0.452171
0 0 0.467689
0 0 0.482246
0 0 0.494972
0 0 0.506127
0 0 0.516258
0 0 0.526375
0 0 0.541802
0 0 0.557549
0 0 0.572519
0 0 0.58761
0 0 0.602838
0 0 0.618219
0 0 0.633967
0 0 0.649805
0 0 0.665843
0 0 0.682033
0 0 0.698604
0 0.0218967 0.0859541
0 0.0225376 0.103044
0 0.0215457 0.119631
0 0.0182803 0.135912
0 0.0133059 0.145953
0 0.00688182 0.151644
0 0 0.154086
0 0 0.273503
0 0 0.341711
0 0 0.409323
0 0 0.425025
0 0 0.440833
0 0 0.456687
0 0 0.47216
0 0 0.48629
0 0 0.498589
0 0 0.509346
0 0 0.519387
0 0 0.530221
0 0 0.547219
0 0 0.562234
0 0 0.577218
0 0 0.592371
0 0 0.607721
0 0 0.623194
0 0 0.638911
0 0 0.654795
0 0 0.670985
0 0 0.687266
0 0 0.703746
0 0 0.720562
0 0 0.732448
0 0.0241398 0.735912
0 0.0226596 0.0799878
0 0.0255741 0.0957656
0 0.025803 0.110628
0 0.024506 0.122728
0 0.0210422 0.135241
0 0.0159609 0.141314
0 0.0096437 0.142321
0 0.000885023 0.140978
0 0 0.260075
0 0 0.338872
0 0 0.458381
0 0 0.489738
0 0 0.501839
0 0 0.512413
0 0 0.52253
0 0 0.535348
0 0 0.552254
0 0 0.567224
0 0 0.582269
0 0 0.597482
0 0 0.612863
0 0 0.628504
0 0 0.644358
0 0 0.660243
0 0 0.676448
0 0 0.692866
0 0 0.709499
0 0 0.725567
0 0 0.734127
0 0.065919 0.735821
0 0.162692 0.733944
0 0.232868 0.729015
0 0.291463 0.721355
0 0.01944 0.070161
0 0.024445 0.0838788
0 0.0268864 0.0972305
0 0.0270542 0.108339
0 0.0253147 0.116518
0 0.0218967 0.121843
0 0.0170596 0.124178
0 0.0114137 0.120958
0 0.00396735 0.115984
0 0 0.234287
0 0 0.324071
0 0 0.468055
0 0 0.539208
0 0 0.556161
0 0 0.57145
0 0 0.586831
0 0 0.602213
0 0 0.617838
0 0 0.633616
0 0 0.649454
0 0 0.665568
0 0 0.681834
0 0 0.698283
0 0 0.715023
0 0 0.729305
0 0 0.734874
0 0.106661 0.735225
0 0.190585 0.732219
0 0.255695 0.726177
0 0.310262 0.71809
0 0.357015 0.709361
0 0.39617 0.702434
0 0.427497 0.700389
0 0.0138857 0.0563973
0 0.0188144 0.0686656
0 0.0234989 0.0793927
0 0.0254978 0.0901045
0 0.0258946 0.0966812
0 0.0239109 0.100938
0 0.0205539 0.100465
0 0.0165255 0.0952621
0 0.0119783 0.0878004
0 0.00631724 0.0797742
0 0 0.197848
0 0 0.304692
0 0 0.452827
0 0 0.589319
0 0 0.620874
0 0 0.637293
0 0 0.653498
0 0 0.669825
0 0 0.686351
0 0 0.702953
0 0 0.719814
0 0 0.731746
0 0.0309606 0.735134
0 0.136019 0.734539
0 0.212726 0.730404
0 0.273884 0.72369
0 0.326192 0.715084
0 0.37084 0.706477
0 0.407309 0.700877
0 0.448569 0.682994
0 0.506661 0.570291
0 0.532845 0.535149
0.0721904 0.553216 0.51902
0 0.00814832 0.0401007
0 0.011902 0.0510567
0 0.0158389 0.0614023
0 0.0192874 0.0697795
0 0.0216526 0.0752575
0 0.0215457 0.0784314
0 0.019913 0.0778973
0 0.0173342 0.0733196
0 0.0140383 0.0649119
0 0.0105745 0.0545968
0 0.00683604 0.0446174
0 0 0.153414
0 0 0.277028
0 0 0.425025
0 0 0.600961
0 0 0.689342
0 0 0.70695
0 0 0.723735
0 0 0.73344
0 0.0650034 0.73518
0 0.1626 0.73344
0 0.233631 0.72842
0 0.292027 0.720851
0 0.34139 0.71223
0 0.38381 0.704097
0 0.418112 0.699886
0 0.478569 0.629435
0 0.516426 0.55436
0.00691234 0.540124 0.529183
0.0920119 0.560296 0.514961
0.113222 0.581994 0.505348
0.105394 0.604639 0.497414
0.0744793 0.628199 0.489891
0 0.00360113 0.0240787
0 0.0059968 0.0330358
0 0.00866712 0.0417029
0 0.0112459 0.0492714
0 0.0132906 0.0548409
0 0.0144503 0.0578775
0 0.0143893 0.0577096
0 0.0131075 0.0543526
0 0.0108949 0.0482795
0 0.00828565 0.0405127
0 0.00575265 0.0322118
0 0.00341802 0.0233463
0 0 0.0984512
0 0 0.243107
0 0 0.394995
0 0 0.591485
0 0 0.734493
0 0.17937 0.732509
0 0.24892 0.726802
0 0.306157 0.718563
0 0.354498 0.709606
0 0.394873 0.702342
0 0.427085 0.699779
0 0.494484 0.596292
0 0.524529 0.544076
0.0398871 0.546639 0.524132
0.101518 0.567346 0.511757
0.111757 0.58941 0.502953
0.0966659 0.612482 0.495155
0.0570535 0.636439 0.487419
0.00386053 0.660639 0.479118
0 0.685176 0.470085
0 0.709819 0.460121
0 0.00103761 0.0112459
0 0.00205997 0.0171054
0 0.0034638 0.0235447
0 0.00505074 0.0296635
0 0.00645457 0.0345922
0 0.0074464 0.0378576
0 0.00764477 0.0384985
0 0.00712596 0.0368658
0 0.00604257 0.0332036
0 0.00451667 0.0277104
0 0.00299077 0.0215305
0 0.0016022 0.0145418
0 0.000518807 0.00825513
0 0 0.0403906
0 0 0.219501
0 0 0.373419
0 0 0.575158
0 0.137118 0.734371
0 0.40087 0.701411
0 0.432929 0.700374
0 0.503059 0.579049
0 0.53106 0.537636
0.0618448 0.552254 0.5205
0.105913 0.573358 0.509468
0.108095 0.595758 0.500999
0.085008 0.619776 0.493111
0.0398718 0.643839 0.485328
0 0.668101 0.476875
0 0.692515 0.467597
0 0.71783 0.457038
0 0.742245 0.445991
0 0.766415 0.434058
0 0.788571 0.422446
0 0.00103761 0.00225834
0 0.000335698 0.00675975
0 0.000762951 0.00976577
0 0.00140383 0.0132601
0 0.00207523 0.0171664
0 0.00259403 0.0197299
0 0.0028687 0.0209812
0 0.00277714 0.0205234
0 0.00231937 0.0184024
0 0.00166323 0.0148928
0 0.000991836 0.0110628
0 0.000320439 0.00669871
0.000274662 0.000823987 0
0.00143435 0.000717174 0
0 0 0.0313878
0 0 0.208179
0 0 0.356161
0 0 0.55584
0 0.135805 0.734417
0.0204623 0.543725 0.527031
0.107973 0.577401 0.507881
0.104524 0.601022 0.499397
0.0749218 0.625345 0.491478
0.0263981 0.649989 0.483314
0 0.67483 0.47454
0 0.699825 0.46479
0 0.724804 0.4542
0 0.749416 0.442664
0 0.77377 0.430426
0 0.79527 0.419089
0 0.815976 0.407401
0 0.836179 0.395377
0 0.85568 0.3832
0 0.000427253 0.00750744
0 0.000823987 0.00340276
0 0.0059205 0
0 0.00437934 0
0 0.000915541 0.00227359
0 0.00030518 0.00650034
0 0.000396735 0.00737011
0 0.000396735 0.00735485
0 0.000289921 0.00639353
0 0.00151064 0
0 0.00198367 0
0 0.00169375 0
0 0.00167849 0
0.000457771 0.00137331 0
0.00149538 0.000915541 0
0 0 0.028809
0 0 0.198505
0 0 0.341695
0 0 0.531395
0 0.0533608 0.73521
0.109483 0.580774 0.506584
0 0.678523 0.473304
0 0.705043 0.462821
0 0.730648 0.451743
0 0.755611 0.439857
0 0.779751 0.427558
0 0.801266 0.416083
0 0.821988 0.404227
0 0.842145 0.392142
0 0.861952 0.377661
0 0.883925 0.346716
0 0.906615 0.291981
0 0.929046 0.210773
0 0.000885023 0.0104372
0 0.000518807 0.00823987
0 0.000259403 0.00616464
0 0.00251774 0
0 0.0061799 0
0 0.00604257 0
0 0.00547799 0
0 0.00466926 0
0 0.00381476 0
0 0.00297551 0
0 0.00267033 0
0 0.00236515 0
0 0.00205997 0
0 0.00175479 0
0.000488289 0.00146487 0
0.00151064 0.00102235 0
0 0 0.0256504
0 0 0.190356
0 0 0.330022
0 0 0.515572
0 0 0.732189
0.109148 0.591455 0.502693
0 0.772808 0.431327
0 0.804974 0.41416
0 0.826368 0.401907
0 0.84683 0.389441
0 0.867475 0.372091
0 0.890135 0.334112
0 0.912932 0.273548
0 0.935592 0.178851
0 0.95671 0.00909438
0 0.971618 0
0 0.982284 0
0 0.00149538 0.0138399
0 0.00103761 0.0112306
0 0.00062562 0.00898756
0 0.000335698 0.0068513
0 0.00120546 0.000854505
0 0.00561532 0
0 0.00561532 0
0 0.00520333 0
0 0.00442512 0
0 0.0034638 0
0 0.00300603 0
0 0.00270085 0
0 0.00242618 0
0 0.00213626 0
0 0.00184634 0
0.000549325 0.00155642 0
0.00149538 0.00112917 0
0 0.000701915 0.0220188
0 0 0.182971
0 0 0.319829
0 0 0.500496
0 0 0.717418
0.109529 0.582055 0.506157
0 0.818555 0.406607
0 0.893141 0.327886
0 0.916594 0.261906
0 0.940002 0.15314
0 0.960113 0
0 0.974884 0
0 0.983749 0
0 0.988174 0
0 0.991699 0
0 0.994156 0
0 0.00222782 0.0179751
0 0.00166323 0.0148623
0 0.0011902 0.0120089
0 0.000747692 0.00972
0 0.000427253 0.00755322
0 0.00077821 0.00331121
0 0.00509651 0
0 0.00521859 0
0 0.00494392 0
0 0.00425727 0
0 0.00328069 0
0 0.00300603 0
0 0.00276188 0
0 0.00248722 0
0 0.00221256 0
0 0.00192264 0
0.000640879 0.00163272 0
0.0015259 0.00122072 0
0 0.00167849 0.0180209
0 0 0.175525
0 0 0.311391
0 0 0.483711
0 0 0.692668
0.0894942 0.561868 0.515038
0 0.835584 0.396612
0 0.972702 0
0 0.984604 0
0 0.989105 0
0 0.99237 0
0 0.994766 0
0.1196 0.995834 0
0.263447 0.995865 0
0.361913 0.994385 0
0 0.00320439 0.0224308
0 0.0024567 0.0190738
0 0.00184634 0.0158999
0 0.00135805 0.0128939
0 0.000885023 0.0104982
0 0.000518807 0.00828565
0 0.000274662 0.00621042
0 0.00477607 0
0 0.00485237 0
0 0.00469978 0
0 0.0041352 0
0 0.00315862 0
0 0.00303655 0
0 0.00283818 0
0 0.00256352 0
0 0.00228885 0
0 0.00199893 0
0.000732433 0.00172427 0
0.00158694 0.00129702 0
0 0.0019379 0.0164492
0 0 0.16643
0 0 0.30396
0 0 0.465019
0 0 0.668315
0 0.539345 0.531014
0 0.834958 0.396887
0 0.989136 0
0.139757 0.99617 0
0.283467 0.995697 0
0.37908 0.994095 0
0.457099 0.991318 0
0.524758 0.988174 0
0.592599 0.983215 0
0 0.00442512 0.0273594
0 0.00349432 0.0236515
0 0.00270085 0.0202029
0 0.00204471 0.0169833
0 0.00151064 0.013901
0 0.00103761 0.0112764
0 0.000640879 0.00903334
0 0.000350958 0.00689708
0 0.00140383 0.000244144
0 0.00448615 0
0 0.00447089 0
0 0.00402838 0
0 0.00314336 0
0 0.00303655 0
0 0.00291447 0
0 0.00263981 0
0 0.00236515 0
0 0.00209049 0
0.000808728 0.00180056 0
0.00166323 0.00137331 0
0 0.00181582 0.0157778
0 0 0.155871
0 0 0.297719
0 0 0.446021
0 0 0.644846
0 0.508461 0.568963
0 0.822889 0.404089
0 0.992905 0
0.516152 0.988708 0
0.602838 0.982315 0
0.677882 0.973678 0
0.747494 0.963851 0
0.809659 0.95404 0
0 0.0059205 0.0327764
0 0.00477607 0.0287022
0 0.0037995 0.0248875
0 0.00294499 0.0213321
0 0.00224308 0.0180514
0 0.00167849 0.0149233
0 0.00120546 0.0120546
0 0.000762951 0.00978103
0 0.000427253 0.00759899
0 0.000747692 0.00325017
0 0.00411994 0
0 0.00422675 0
0 0.00393683 0
0 0.00315862 0
0 0.00303655 0
0 0.00294499 0
0 0.00271611 0
0 0.00244144 0
0 0.00216678 0
0.000900282 0.00189212 0
0.00172427 0.00144961 0
0 0.00170901 0.0151522
0 0 0.143236
0 0 0.289906
0 0 0.428382
0 0 0.62208
0 0.42652 0.699825
0 0.801907 0.415961
0 0.993729 0
0.700023 0.970748 0
0.875059 0.94284 0
0.937377 0.93164 0
0.997238 0.918883 0
0 0.00770581 0.0386969
0 0.00634775 0.0342412
0 0.00515755 0.0300603
0 0.00411994 0.0261387
0 0.00321965 0.0225071
0 0.00247196 0.0191501
0 0.0018616 0.0159762
0 0.00135805 0.0129549
0 0.000900282 0.010544
0 0.000534066 0.00833143
0 0.000274662 0.0062562
0 0.00392157 0
0 0.00396735 0
0 0.00384527 0
0 0.00320439 0
0 0.00300603 0
0 0.00297551 0
0 0.0027924 0
0 0.00251774 0
1.5259e-05 0.00224308 0
0.000976577 0.00196841 0
0.00180056 0.00151064 0
0 0.00163272 0.0146639
0 0 0.129229
0 0 0.280766
0 0 0.412146
0 0 0.601144
0 0.375586 0.705608
0 0.778225 0.428519
0 0.992859 0
0.796872 0.956161 0
1 0.889815 0
1 0.867079 0
0 0.00981155 0.0451209
0 0.00820935 0.0402991
0 0.00679026 0.0357366
0 0.00553903 0.0314641
0 0.00445563 0.027451
0 0.00350958 0.0237278
0 0.00271611 0.0202792
0 0.00204471 0.0170443
0 0.00151064 0.0139773
0 0.00105287 0.0113222
0 0.000640879 0.00907912
0 0.000350958 0.00694286
0 0.00175479 0
0 0.00369268 0
0 0.00373846 0
0 0.00328069 0
0 0.00297551 0
0 0.00299077 0
0 0.0028687 0
0 0.00259403 0
7.62951e-05 0.00233463 0
0.00105287 0.00205997 0
0.0018616 0.00158694 0
0 0.00157168 0.0142824
0 0 0.111467
0 0 0.271717
0 0 0.397543
0 0 0.581094
0 0.309148 0.718059
0 0.749584 0.443046
0 0.990692 0
0.8336 0.949767 0
1 0.833661 0
0 0.012253 0.0520485
0 0.0104067 0.0468452
0 0.00874342 0.0419318
0 0.00724804 0.0372473
0 0.00595102 0.0328832
0 0.00480659 0.0287785
0 0.00381476 0.0249638
0 0.00297551 0.0214084
0 0.00225834 0.0181125
0 0.00167849 0.0149844
0 0.00122072 0.0121004
0 0.000762951 0.00982681
0 0.000442512 0.00764477
0 0.000717174 0.00326543
0 0.00343328 0
0 0.00358587 0
0 0.00334173 0
0 0.00292973 0
0 0.00299077 0
0 0.00289921 0
0 0.00267033 0
0.000183108 0.00241093 0
0.00114443 0.00213626 0
0.00192264 0.00166323 0
0 0.00149538 0.0138399
0 0 0.0899367
0 0 0.263935
0 0 0.384573
0 0 0.562142
0 0.224231 0.729351
0 0.714977 0.458793
0 0.98674 0
0.833295 0.949828 0
0 0.0150607 0.0594492
0 0.0129397 0.0538796
0 0.0110018 0.0485695
0 0.00927749 0.0435492
0 0.00773632 0.0388037
0 0.00637827 0.0343328
0 0.00517281 0.0301518
0 0.0041352 0.0262303
0 0.00325017 0.0225834
0 0.00248722 0.0192264
0 0.0018616 0.0160372
0 0.00137331 0.0130159
0 0.000915541 0.0105898
0 0.000534066 0.0083772
0 0.000274662 0.00628672
0 0.00323491 0
0 0.00340276 0
0 0.00335698 0
0 0.00288396 0
0 0.00296025 0
0 0.00292973 0
0 0.00276188 0
0.000259403 0.00250248 0
0.00123598 0.00222782 0
0.00199893 0.00172427 0
0 0.00144961 0.013489
0 0 0.0778363
0 0 0.256123
0 0 0.373083
0 0 0.544015
0 0.114824 0.734844
0 0.678141 0.473564
0 0.981079 0
0 0.0182803 0.0673838
0 0.0158541 0.0614328
0 0.0136416 0.0557565
0 0.0116426 0.05037
0 0.00985733 0.045243
0 0.00823987 0.0404059
0 0.00682078 0.0358434
0 0.00556954 0.0315557
0 0.00447089 0.0275425
0 0.00354009 0.0238041
0 0.00273136 0.0203555
0 0.00205997 0.0171206
0 0.0015259 0.0140383
0 0.00106813 0.011368
0 0.000656138 0.0091249
0 0.000350958 0.00698863
0 0.00199893 0
0 0.00318914 0
0 0.00332647 0
0 0.00294499 0
0 0.00292973 0
0 0.00294499 0
0 0.00283818 0
0.000335698 0.00257877 0
0.00132753 0.00230411 0
0.00205997 0.00180056 0
0 0.00138857 0.0131228
0 0 0.07393
0 0 0.248722
0 0 0.36286
0 0 0.526696
0 0 0.733608
0.0423285 0.642145 0.486183
0 0.0218967 0.0758221
0 0.0191653 0.0695048
0 0.0166629 0.0634623
0 0.0143587 0.0576486
0 0.0122988 0.0521706
0 0.0104372 0.0469673
0 0.00877394 0.0420386
0 0.00727855 0.0373388
0 0.00596628 0.0329595
0 0.00482185 0.0288701
0 0.00383001 0.0250401
0 0.00299077 0.0214847
0 0.00227359 0.0181888
0 0.00169375 0.0150454
0 0.00122072 0.0121462
0 0.00077821 0.00987259
0 0.000442512 0.00769055
0 0.000686656 0.00332647
0 0.00292973 0
0 0.00323491 0
0 0.00296025 0
0 0.0028687 0
0 0.00294499 0
0 0.0028687 0
0.000457771 0.00265507 0
0.00143435 0.00238041 0
0.002121 0.0018616 0
0 0.00132753 0.0127718
0 0 0.0698711
0 0 0.240101
0 0 0.353475
0 0 0.515953
0 0 0.720287
0 0.0259556 0.0849317
0 0.0228885 0.0780346
0 0.0200504 0.0715953
0 0.0174716 0.0654612
0 0.0151217 0.0595865
0 0.0129854 0.0540017
0 0.0110475 0.0486915
0 0.009308 0.0436561
0 0.00776684 0.0389105
