FALSE_LUMA.cube
TITLE "Generated by Resolve"
LUT_3D_SIZE 9
0 0 0
0 0 0.0738384
0 0 0.146593
0 0 0.202914
0 0 0.258549
0 0 0.305745
0 0 0.344121
0 0 0.395285
0 0 0.45655
0 0.0128328 0.0782483
0 0 0.142611
0 0 0.317876
0 0 0.360815
0 0 0.416556
0 0 0.478126
0 0 0.523384
0 0 0.583185
0 0 0.645258
0 0.0197147 0.0707866
0 0.0255283 0.116991
0 0.00410468 0.116503
0 0 0.540169
0 0 0.603037
0 0 0.666346
0 0 0.72987
0 0.25864 0.725826
0 0.428992 0.70042
0 0.00115969 0.0118563
0 0.00665293 0.0352789
0 0.00616464 0.0336156
0 0.000564584 0.00859083
0 0 0.576074
0 0.505104 0.575051
0.10753 0.597406 0.500389
0 0.694408 0.466758
0 0.790173 0.421454
0 0.00157168 0.0143587
0 0.0010071 0.00192264
0 0.00445563 0
0 0.00244144 0
0.00151064 0.00106813 0
0 0 0.501198
0 0.89427 0.325078
0 0.975799 0
0 0.994186 0
0 0.0061799 0.0336919
0 0.00236515 0.0186465
0 0.00047303 0.00793469
0 0.00395209 0
0 0.00274662 0
0.00167849 0.00138857 0
0 0 0.429358
0 0.993927 0
1 0.917967 0
0 0.0156405 0.060914
0 0.00807202 0.0398413
0 0.00340276 0.02327
0 0.000976577 0.0109712
0 0.00334173 0
0 0.00294499 0
0.00192264 0.00166323 0
0 0 0.373861
0 0.981384 0
0 0.0315099 0.0958419
0 0.0190127 0.0691234
0 0.0102846 0.0465248
0 0.00469978 0.0284123
0 0.00161746 0.0146181
0 0.000900282 0.000915541
0 0.00288396 0
0.00216678 0.00192264 0
0 0 0.338872
0 0.0601816 0.125093
0 0.036759 0.104997
0 0.0228122 0.0778821
0 0.0128634 0.0537118
0 0.00628672 0.0340734
0 0.00242618 0.0189212
0 0.000503548 0.00810254
0 0.00270085 0
0.0024567 0.00215152 0
0.00541695 0 0.0575265
0 0 0.171054
0 0 0.205402
0 0 0.22211
0 0 0.278065
0 0 0.317662
0 0 0.36022
0 0 0.415671
0 0 0.477577
0 0 0.218753
0 0 0.295521
0 0 0.331014
0 0 0.37847
0 0 0.437995
0 0 0.496117
0 0 0.543633
0 0 0.604578
0 0 0.667826
0 0.0180362 0.167971
0 0.0466926 0.297993
0 0 0.351919
0 0 0.563119
0 0 0.624949
0 0 0.689464
0 0.0441596 0.735683
0 0.331624 0.714397
0 0.510094 0.563821
0 0.0075227 0.0381476
0 0.0486152 0.128664
0 0.0991684 0.184298
0 0.00622568 0.189258
0 0.380072 0.704723
0.00859083 0.541436 0.528817
0.0670939 0.630777 0.489494
0 0.72903 0.451911
0 0.819089 0.405112
0 0.000946059 0.0107576
0 0.00192264 0.0163882
0 0.0124514 0.0525673
0 0.0111543 0.0489967
0 0.00115969 0.0118257
0 0.249561 0.726635
0 0.927947 0.217533
0 0.985885 0
0.159319 0.995911 0
0 0.00460822 0.0280461
0 0.00157168 0.0143587
0 0.0010071 0.00192264
0 0.00445563 0
0 0.00244144 0
0.00151064 0.00103761 0
0 0 0.625788
0.842832 0.94818 0
1 0.896849 0
0 0.0126802 0.0532082
0 0.0061799 0.0336919
0 0.00236515 0.0186465
0 0.00047303 0.00793469
0 0.00395209 0
0 0.00274662 0
0.00164797 0.00137331 0
0 0 0.513878
1 0.863523 0
0 0.0267796 0.0866712
0 0.0156405 0.060914
0 0.00807202 0.0398413
0 0.00340276 0.02327
0 0.000976577 0.0109712
0 0.00334173 0
0 0.00294499 0
0.00189212 0.00163272 0
0 0 0.440925
0 0.0493172 0.121279
0 0.0315099 0.0958572
0 0.0190127 0.0691234
0 0.0102846 0.0465248
0 0.00469978 0.0284123
0 0.00161746 0.0146181
0 0.000900282 0.0009308
0 0.00288396 0
0.00213626 0.00189212 0
0.012314 0 0.138506
0 0 0.263081
0 0 0.280949
0 0 0.363256
0.0233158 0 0.345617
0 0 0.328405
0 0 0.377981
0 0 0.437125
0 0 0.496056
0 0 0.273289
0 0 0.366262
0 0 0.384421
0 0 0.394598
0 0 0.459617
0 0 0.511604
0 0 0.565576
0 0 0.626764
0 0 0.69102
0 0 0.228641
0 0 0.389685
0 0 0.523781
0 0 0.583886
0 0 0.646891
0 0 0.713039
0 0.176028 0.733837
0 0.389227 0.704143
0.0325933 0.542763 0.526223
0 0.00579843 0.0480354
0 0.0677958 0.264195
0 0.257252 0.388312
0 0.146181 0.51194
0 0.430152 0.70013
0.10425 0.571069 0.510353
0 0.665248 0.477684
0 0.763348 0.43537
0 0.84683 0.38819
0 0.000442512 0.00772107
0 0.0140078 0.056733
0 0.114656 0.171847
0 0.215137 0.221927
0 0.0781415 0.240024
0 0.866636 0.373556
0 0.958755 0
0 0.991348 0
0.329122 0.994797 0
0 0.00332647 0.0229343
0 0.000946059 0.0107576
0 0.00285344 0.0208896
0 0.0198215 0.071046
0 0.0175021 0.0655222
0 0.00175479 0.0154269
0 0.698024 0.465858
0.931426 0.932906 0
1 0.871885 0
0 0.0101167 0.0460365
0 0.00460822 0.0280613
0 0.00157168 0.0143587
0 0.0010071 0.00192264
0 0.00445563 0
0 0.00244144 0
0.0015259 0.00102235 0
0 0.149905 0.733913
1 0.484016 0
0 0.0225376 0.0772564
0 0.0126802 0.0532082
0 0.0061799 0.0336919
0 0.00236515 0.0186465
0 0.00047303 0.00793469
0 0.00395209 0
0 0.00274662 0
0.00161746 0.00134279 0
0 0 0.602304
0 0.0421149 0.113481
0 0.0267796 0.0866712
0 0.0156405 0.060914
0 0.00807202 0.0398413
0 0.00340276 0.02327
0 0.000976577 0.0109712
0 0.00334173 0
0 0.00294499 0
0.0018616 0.0016022 0
0.0255283 0 0.23624
0.0402686 0 0.246464
0 0 0.324132
0 0 0.357061
0.00495918 0 0.45008
0.466438 0 0.492729
0.437873 0 0.466697
0 0 0.452735
0 0 0.511162
0.021149 0 0.234745
0 0 0.375326
0 0 0.421073
0 0 0.394888
0.0708019 0 0.428855
0.397925 0 0.513024
0 0 0.580728
0 0 0.650141
0 0 0.715496
0 0 0.227115
0 0 0.406653
0 0 0.511772
0 0 0.544442
0.304234 0 0.676417
0 0 0.733425
0 0.263478 0.72726
0 0.431571 0.702464
0.117037 0.570825 0.509667
0 0 0.0752575
0 0 0.323629
0 0.183124 0.538659
0 0.332296 0.713848
0 0.510826 0.564462
0.107027 0.601678 0.498939
0 0.699947 0.464515
0 0.794522 0.419074
0 0.875532 0.359792
0 0.00117494 0.00364691
0 0.0091249 0.0931411
0 0.192844 0.337926
0.0380102 0.458778 0.387701
0.28574 0.480003 0.320134
0 0.902068 0.306035
0 0.979507 0
0 0.994492 0
0.443931 0.991592 0
0 0.00230411 0.0183261
0 0.000442512 0.00773632
0 0.0222019 0.0765087
0 0.196155 0.229755
0.0787366 0.297871 0.208942
0 0.162615 0.280507
0.769543 0.960494 0
1 0.91426 0
1 0.842649 0
0 0.00791943 0.0393835
0 0.00332647 0.0229343
0 0.000946059 0.0107576
0 0.00392157 0.0254063
0 0.0287633 0.0906386
0 0.0235294 0.0855726
0 0.00244144 0.0190127
0 0.981689 0
1 0.409415 0
0 0.0187533 0.0685283
0 0.0101167 0.0460365
0 0.00460822 0.0280613
0 0.00157168 0.0143587
0 0.0010071 0.00192264
0 0.00445563 0
0 0.00244144 0
0.00151064 0.000991836 0
0.0716411 0.555566 0.518654
0 0.0363622 0.104341
0 0.0225376 0.0772564
0 0.0126802 0.0532082
0 0.0061799 0.0336919
0 0.00236515 0.0186465
0 0.00047303 0.00793469
0 0.00395209 0
0 0.00274662 0
0.0016022 0.00132753 0
0.0787671 0 0.424399
0.0749676 0 0.376608
0.0975357 0 0.38323
0 0 0.483864
0 0 0.505211
0.146593 0 0.543465
0.583383 0 0.585077
0.818952 0 0.548547
0.683223 0 0.5196
0.0222019 0 0.271748
0.0346075 0 0.27068
0 0 0.372351
0 0 0.403067
0 0 0.368338
0.0755322 0 0.470787
0.650935 0 0.60058
0.652689 0 0.582238
0.0435187 0 0.762676
0 0 0.134417
0 0 0.34403
0 0 0.472587
0 0 0.524453
0 0 0.443809
0.291356 0 0.529656
0.635172 0 0.717205
0 0.479683 0.630793
0.122683 0.600534 0.499397
0 0 0.0215305
0 0 0.265904
0 0 0.487083
0 0 0.737636
0.137652 0 0.791653
0 0 1
0 0.732891 0.450645
0 0.822934 0.403082
0 0.906767 0.289418
0 0.000244144 0.016968
0 0 0.105913
0 0.026154 0.378912
0 0.430503 0.652811
0 0.845533 0.39057
0 0.933043 0.192798
0 0.986786 0
0.204044 0.995636 0
0.53933 0.986862 0
0 0 0.0485542
0 0.00117494 0.00364691
0 0.0141299 0.132433
0 0.290715 0.392493
0 0.764416 0.279667
0 0.800931 0
0.86656 0.944152 0
1 0.891325 0
1 0.809369 0
0 0.00605783 0.0332494
0 0.00230411 0.0183261
0 0.000442512 0.00772107
0 0.0320897 0.0968948
0 0.289021 0.2009
0.159319 0.393973 0.228748
0.185077 0.249012 0.171237
1 0.535225 0
1 0.324895 0
0 0.0154116 0.0603189
0 0.00791943 0.0393835
0 0.00332647 0.0229343
0 0.000946059 0.0107576
0 0.00514229 0.0299992
0 0.0385443 0.10985
0 0.0298619 0.105653
0 0.00321965 0.0225071
0.829007 0.950545 0
0 0.0311437 0.0951858
0 0.0187533 0.0685283
0 0.0101167 0.0460365
0 0.00460822 0.0280613
0 0.00157168 0.0143587
0 0.0010071 0.00192264
0 0.00445563 0
0 0.00244144 0
0.00151064 0.000976577 0
0 0 0.6448
0 0 0.592065
0 0 0.57615
0 0 0.63357
0 0 0.645136
0 0 0.637964
0.3467 0 0.627359
0.685893 0 0.67689
0.951064 0 0.601404
0.0728618 0 0.473518
0.0787823 0 0.42446
0.0749828 0 0.376699
0.0975357 0 0.3832
0 0 0.48394
0 0 0.505333
0.203021 0 0.553933
0.705562 0 0.658747
0.991577 0.0908217 0.575921
0.0210727 0 0.316304
0.0222019 0 0.271794
0.0444343 0 0.303502
0 0 0.444739
0 0 0.441917
0 0 0.379095
0.166003 0 0.501259
0.766903 0 0.632532
0.8038 0.326925 0.555673
0 0 0.173541
0 0 0.134401
0 0 0.380896
0 0 0.543969
0 0 0.568948
0 0 0.491295
0.490303 0 0.642252
0.6813 0.543526 0.496391
0 0.914443 0.263157
0 0 0.0777752
0 0 0.0215305
0 0 0.302205
0 0 0.576715
0 0.360388 0.864591
0 0.270726 0.947158
0.293782 0.888808 0.0256504
0.354208 0.993774 0
0.636149 0.978088 0
0 0 0.121736
0 0.000244144 0.016968
0 0 0.121355
0 0.104051 0.447135
0 0.770596 0.505547
0.704067 0.970184 0
0.947112 0.929702 0
1 0.866224 0
1 0.773053 0
0 0 0.104204
0 0 0.0485695
0 0.00117494 0.00364691
0 0.0208286 0.166491
0 0.389883 0.445396
0 0.997024 0
0.449699 0.948013 0
1 0.462928 0
1 0.25185 0
0 0.0124819 0.0526589
0 0.00605783 0.0332494
0 0.00230411 0.0183261
0 0.000442512 0.00772107
0 0.0436713 0.115816
0 0.349279 0.239078
0 0.574594 0.102815
0.25359 0.310918 0.202838
1 0 0.590921
0 0.0264439 0.0859846
0 0.0154116 0.0603189
0 0.00791943 0.0393835
0 0.00332647 0.0229343
0 0.000946059 0.0107576
0 0.00648508 0.034699
0 0.0501564 0.125856
0 0.0356603 0.127245
0 0.00407416 0.0259861
0 0 0.878981
0 0 0.82121
0 0 0.789761
0 0 0.792966
0 0 0.778088
0 0 0.763836
0.242161 0 0.743481
0.569665 0 0.705333
0.812741 0 0.75761
0 0 0.697429
0 0 0.644785
0 0 0.592035
0 0 0.576181
0 0 0.633707
0 0 0.645167
0 0 0.63801
0.389197 0 0.634272
0.777081 0 0.718822
0.016022 0 0.52401
0.0727855 0 0.473533
0.0787976 0 0.424491
0.0749828 0 0.376699
0.0975357 0 0.3832
0 0 0.48394
0 0 0.505379
0.261479 0 0.568933
0.787778 0 0.675929
0.0205386 0 0.361959
0.021088 0 0.316258
0.0222019 0 0.271794
0.046891 0 0.33518
0 0 0.480659
0 0 0.478035
0 0 0.389685
0.26482 0 0.538933
0.901656 0.206104 0.636164
0 0 0.223575
0 0 0.173587
0 0 0.134401
0 0 0.414694
0 0 0.60238
0 0 0.735348
0.0804761 0 0.578149
0.62208 0 0.749355
0.988647 0.750408 0
0 0 0.177798
0 0 0.0777752
0 0 0.0215305
0 0 0.336751
0 0.0355077 0.691356
0 0.814237 0.651682
0 0.875822 0.468589
1 0.787305 0
1 0.733486 0
0 0 0.201205
0 0 0.121721
0 0.000244144 0.016968
0 0 0.133913
0 0.21532 0.491951
0 1 0.0771496
1 0.572168 0
1 0.394247 0
1 0.177218 0.0869154
0 0 0.154726
0 0 0.104219
0 0 0.0485542
0 0.00117494 0.00364691
0 0.0275425 0.198184
0 0.566247 0.401282
0.822293 0.978424 0
1 0.889006 0
1 0 0.631464
0 0.020798 0.0918288
0 0.0124819 0.0526589
0 0.00605783 0.0332494
0 0.00230411 0.0183261
0 0.000442512 0.00773632
0 0.0603799 0.127413
0 0.424781 0.26981
0 0.737453 0
0.308598 0.391836 0.207355
0 0 1
0 0 0.983459
0 0 0.954604
0 0 0.92903
0 0 0.908309
0 0 0.890883
0.203235 0 0.866575
0.51046 0 0.826429
0.709148 0 0.825696
0 0 0.908568
0 0 0.878294
0 0 0.821149
0 0 0.789853
0 0 0.792935
0 0 0.777844
0 0 0.763836
0.242267 0 0.743511
0.585122 0 0.718685
0 0 0.748287
0 0 0.697429
0 0 0.644785
0 0 0.592279
0 0 0.576181
0 0 0.633707
0 0 0.645167
0 0 0.638025
0.4327 0 0.641123
0 0 0.574823
0.0161135 0 0.523842
0.0727855 0 0.473533
0.0787823 0 0.42446
0.0749828 0 0.376699
0.0975357 0 0.383215
0 0 0.48394
0 0 0.505348
0.323583 0 0.585458
0.0214542 0 0.410376
0.0205539 0 0.361959
0.021088 0 0.316258
0.0222019 0 0.271748
0.00511177 0 0.366094
0 0 0.514534
0 0 0.51223
0 0 0.400031
0.375921 0 0.572931
0 0 0.306432
0 0 0.223621
0 0 0.173587
0 0 0.134432
0 0 0.446387
0 0 0.658076
0 0 0.873777
0.260945 0 0.69337
0.757122 0 0.856779
0 0 0.29482
0 0 0.177798
0 0 0.0777752
0 0 0.0215305
0 0 0.370062
0 0.190036 0.797955
0 1 0
0.885542 0.906661 0
1 0.0527962 0.214862
0 0 0.255055
0 0 0.201205
0 0 0.121752
0 0.000244144 0.016968
0 0 0.145113
0 0.278264 0.563256
0.845396 0.983658 0
1 0 0.567971
1 0 0.661784
0 0 0.203311
0 0 0.154726
0 0 0.104219
0 0 0.0485695
0 0.00117494 0.00364691
0 0.0372168 0.223285
0 0.737331 0.358022
1 0.766262 0
1 0.58436 0
0 0 1
0 0 1
0 0 1
0 0 1
0 0 1
0 0 1
0.166918 0 0.985046
0.460075 0 0.973816
0.66215 0 0.955184
0 0 1
0 0 1
0 0 0.983001
0 0 0.954452
0 0 0.929198
0 0 0.908278
0 0 0.890791
0.203342 0 0.86656
0.510475 0 0.82649
0 0 0.938201
0 0 0.908888
0 0 0.878294
0 0 0.82121
0 0 0.789853
0 0 0.792935
0 0 0.778073
0 0 0.763775
0.242313 0 0.743511
0 0 0.799786
0 0 0.74844
0 0 0.697429
0 0 0.644785
0 0 0.592035
0 0 0.576181
0 0 0.633707
0 0 0.645106
0 0 0.638117
0 0 0.625803
0 0 0.574975
0.0161135 0 0.523842
0.0728008 0 0.473518
0.0787823 0 0.42446
0.0749828 0 0.376699
0.0975357 0 0.383215
0 0 0.48394
0 0 0.50544
0 0 0.482597
0.0214694 0 0.410346
0.0205539 0 0.361975
0.021088 0 0.316258
0.0222019 0 0.271748
0 0 0.395621
0 0 0.546853
0 0 0.542718
0 0 0.410101
0 0 0.410681
0 0 0.306462
0 0 0.223621
0 0 0.173587
0 0 0.134401
0 0 0.477852
0 0 0.773693
0 0 1
0.348928 0 0.786175
0 0 0.37435
0 0 0.294713
0 0 0.177798
0 0 0.0777905
0 0 0.0215305
0 0 0.402686
0 0.500572 0.811276
1 0.744076 0
1 0.429786 0
0 0 0.308263
0 0 0.25507
0 0 0.201205
0 0 0.121721
0 0.000244144 0.016968
0 0 0.155688
0 0.367712 0.622675
1 0.606241 0
1 0 0.796277
