FALSE_HEATMAP_v2.cube
TITLE "Generated by Resolve"
LUT_3D_SIZE 9
0 0 0
0 0 0.0724651
0 0 0.145571
0 0 0.201984
0 0 0.257588
0 0 0.30518
0 0 0.343328
0 0 0.394232
0 0 0.455467
0 0.0126802 0.0777752
0 0 0.142092
0 0 0.317311
0 0 0.360143
0 0 0.415671
0 0 0.477317
0 0 0.522774
0 0 0.582284
0 0 0.644297
0 0.01944 0.070161
0 0.0253147 0.116518
0 0.00396735 0.115984
0 0 0.539208
0 0 0.602213
0 0 0.665568
0 0 0.729305
0 0.255695 0.726177
0 0.427497 0.700389
0 0.00103761 0.0112459
0 0.00645457 0.0345922
0 0.00604257 0.0332036
0 0.000518807 0.00825513
0 0 0.575158
0 0.503059 0.579049
0.108095 0.595758 0.500999
0 0.692515 0.467597
0 0.788571 0.422446
0 0.00149538 0.0138399
0 0.00120546 0.000854505
0 0.00442512 0
0 0.00242618 0
0.00149538 0.00112917 0
0 0 0.500496
0 0.893141 0.327886
0 0.974884 0
0 0.994156 0
0 0.0059205 0.0327764
0 0.00224308 0.0180514
0 0.000427253 0.00759899
0 0.00393683 0
0 0.00271611 0
0.00172427 0.00144961 0
0 0 0.428382
0 0.993729 0
0.997238 0.918883 0
0 0.0150607 0.0594492
0 0.00773632 0.0388037
0 0.00325017 0.0225834
0 0.000915541 0.0105898
0 0.00340276 0
0 0.00292973 0
0.00199893 0.00172427 0
0 0 0.373083
0 0.981079 0
0 0.0304723 0.0939193
0 0.0183413 0.0675212
0 0.00988785 0.0453651
0 0.00450141 0.0276341
0 0.00154116 0.0140993
0 0.00303655 0
0 0.00289921 0
0.00225834 0.00199893 0
0 0 0.338262
0 0.057496 0.124178
0 0.0355688 0.103014
0 0.022034 0.076112
0 0.0123751 0.0523842
0 0.00602731 0.0331426
0 0.00230411 0.0183108
0 0.000457771 0.00776684
0 0.00268559 0
0.00260929 0.00221256 0
0.00489815 0 0.0530861
0 0 0.169574
0 0 0.204059
0 0 0.221363
0 0 0.277272
0 0 0.317128
0 0 0.359518
0 0 0.41474
0 0 0.476707
0 0 0.217853
0 0 0.29482
0 0 0.330404
0 0 0.377676
0 0 0.43714
0 0 0.495537
0 0 0.542702
0 0 0.603754
0 0 0.666804
0 0.0179751 0.166461
0 0.0462348 0.297185
0 0 0.351125
0 0 0.562142
0 0 0.62388
0 0 0.688273
0 0.0366979 0.735576
0 0.327825 0.715236
0 0.507881 0.567575
0 0.00730907 0.0374151
0 0.0478676 0.12842
0 0.0982376 0.184268
0 0.00587472 0.188983
0 0.377234 0.705348
0.000900282 0.540215 0.529854
0.0695964 0.629252 0.489967
0 0.727474 0.452628
0 0.817807 0.406012
0 0.000869764 0.0103914
0 0.00177005 0.0155184
0 0.0121767 0.0518196
0 0.0109865 0.0485389
0 0.00108339 0.01149
0 0.245853 0.727153
0 0.926528 0.223865
0 0.985733 0
0.149187 0.995941 0
0 0.00440986 0.0272679
0 0.00149538 0.0138399
0 0.00120546 0.000854505
0 0.00442512 0
0 0.00242618 0
0.00151064 0.00109865 0
0 0 0.624842
0.839734 0.948623 0
1 0.897734 0
0 0.0122225 0.0519265
0 0.0059205 0.0327916
0 0.00224308 0.0180514
0 0.000427253 0.00759899
0 0.00393683 0
0 0.00271611 0
0.00170901 0.00141909 0
0 0 0.513283
1 0.864729 0
0 0.025864 0.0847791
0 0.0150607 0.0594492
0 0.00773632 0.0388037
0 0.00325017 0.0225986
0 0.000915541 0.0105898
0 0.00340276 0
0 0.00292973 0
0.00196841 0.00169375 0
0 0 0.439811
0 0.0471504 0.120089
0 0.0304723 0.0939345
0 0.0183413 0.0675364
0 0.00988785 0.0453651
0 0.00450141 0.0276341
0 0.00154116 0.0140993
0 0.00303655 0
0 0.00289921 0
0.00221256 0.00196841 0
0.0115206 0 0.133242
0 0 0.259312
0 0 0.27866
0 0 0.361257
0.0228428 0 0.345464
0 0 0.327916
0 0 0.377356
0 0 0.436362
0 0 0.495476
0 0 0.271977
0 0 0.365103
0 0 0.384268
0 0 0.393668
0 0 0.458595
0 0 0.510948
0 0 0.564538
0 0 0.625727
0 0 0.689921
0 0 0.227405
0 0 0.388968
0 0 0.523171
0 0 0.583017
0 0 0.645899
0 0 0.712108
0 0.171344 0.734112
0 0.387106 0.704417
0.0255741 0.541665 0.527184
0 0.00569161 0.0458686
0 0.0668193 0.263523
0 0.256565 0.387564
0 0.145968 0.51075
0 0.428733 0.700069
0.104219 0.569818 0.510796
0 0.664118 0.478157
0 0.762127 0.436027
0 0.845884 0.388769
0 0.000411994 0.00740063
0 0.0136416 0.0557565
0 0.113863 0.171756
0 0.213703 0.222827
0 0.0767529 0.240162
0 0.865476 0.374899
0 0.957702 0.00241093
0 0.991104 0
0.321706 0.99501 0
0 0.00315862 0.0222629
0 0.000869764 0.0103914
0 0.00268559 0.0201724
0 0.0194858 0.0702525
0 0.0173037 0.0650339
0 0.00167849 0.0149386
0 0.696345 0.466499
0.928237 0.933455 0
1 0.872999 0
0 0.00972 0.0448768
0 0.00440986 0.0272679
0 0.00149538 0.0138399
0 0.00120546 0.000854505
0 0.00442512 0
0 0.00242618 0
0.00151064 0.00108339 0
0 0.143511 0.734264
1 0.486122 0
0 0.0217594 0.0755169
0 0.0122225 0.0519265
0 0.0059205 0.0327916
0 0.00224308 0.0180514
0 0.000427253 0.00759899
0 0.00393683 0
0 0.00271611 0
0.00167849 0.00140383 0
0 0 0.60148
0 0.0407568 0.111406
0 0.025864 0.0847791
0 0.0150607 0.0594492
0 0.00773632 0.0388037
0 0.00325017 0.0225986
0 0.000915541 0.0105898
0 0.00340276 0
0 0.00292973 0
0.0019379 0.00167849 0
0.0243687 0 0.231327
0.0387732 0 0.241291
0.00480659 0 0.318624
0 0 0.354345
0.00314336 0 0.448402
0.463584 0 0.491417
0.43624 0 0.466178
0 0 0.451514
0 0 0.510201
0.0202487 0 0.230289
0 0 0.37438
0 0 0.420142
0 0 0.39353
0.0699626 0 0.428244
0.396429 0 0.512139
0 0 0.579492
0 0 0.649104
0 0 0.714443
0 0 0.225666
0 0 0.405951
0 0 0.511147
0 0 0.543496
0.303304 0 0.675334
0 0 0.732677
0 0.261097 0.727337
0 0.430549 0.702174
0.114549 0.569848 0.510277
0 0 0.0701305
0 0 0.322759
0 0.182696 0.537896
0 0.32874 0.714595
0 0.508614 0.568429
0.10779 0.600183 0.499413
0 0.698268 0.465141
0 0.793088 0.419745
0 0.873869 0.362341
0 0.00131228 0.00337224
0 0.00900282 0.0906081
0 0.191699 0.337697
0.0381933 0.457664 0.387701
0.286168 0.478813 0.320516
0 0.900557 0.309575
0 0.978683 0
0 0.994385 0
0.439872 0.991699 0
0 0.00218204 0.0177462
0 0.000411994 0.00740063
0 0.0217441 0.0754711
0 0.194888 0.230549
0.0774548 0.297292 0.208545
0 0.162036 0.27985
0.765118 0.961227 0
1 0.914992 0
1 0.843809 0
0 0.00759899 0.0383459
0 0.00315862 0.0222629
0 0.000869764 0.0103914
0 0.00370794 0.0245212
0 0.0283665 0.0898604
0 0.0232853 0.0849165
0 0.00236515 0.0186618
0 0.981384 0
1 0.412375 0
0 0.0180819 0.0669261
0 0.00972 0.0448768
0 0.00440986 0.0272679
0 0.00149538 0.0138399
0 0.00120546 0.000854505
0 0.00442512 0
0 0.00242618 0
0.00151064 0.00105287 0
0.0666972 0.55404 0.519585
0 0.0351873 0.102373
0 0.0217746 0.0755169
0 0.0122225 0.0519265
0 0.0059205 0.0327916
0 0.00224308 0.0180514
0 0.000427253 0.00759899
0 0.00393683 0
0 0.00271611 0
0.00166323 0.00137331 0
0.078294 0 0.423102
0.074403 0 0.375311
0.0963607 0 0.380636
0 0 0.481834
0 0 0.502815
0.142351 0 0.542092
0.581323 0 0.583093
0.817258 0 0.547951
0.682658 0 0.519387
0.0220645 0 0.270558
0.0331884 0 0.265446
0 0 0.367773
0 0 0.400977
0 0 0.365194
0.0724041 0 0.469535
0.650202 0 0.600183
0.652308 0 0.582238
0.0402075 0 0.7617
0 0 0.133669
0 0 0.342504
0 0 0.471748
0 0 0.523873
0 0 0.443626
0.289158 0 0.529076
0.634119 0 0.716411
0 0.475273 0.640162
0.123781 0.598962 0.499931
0 0 0.0209964
0 0 0.264485
0 0 0.486686
0 0 0.736522
0.137118 0 0.790585
0 0 1
0 0.731456 0.451255
0 0.821744 0.403693
0 0.905364 0.292836
0 0.000595102 0.015259
0 0 0.102647
0 0.025391 0.378454
0 0.429007 0.652873
0 0.84445 0.391241
0 0.931777 0.198871
0 0.986679 0
0.197208 0.995682 0
0.535393 0.987228 0
0 0 0.0463569
0 0.00131228 0.00337224
0 0.0139315 0.130358
0 0.290196 0.392035
0 0.763043 0.280537
0 0.799542 0
0.863523 0.944625 0
1 0.89247 0
1 0.81117 0
0 0.00579843 0.0323796
0 0.00218204 0.0177615
0 0.000411994 0.00740063
0 0.0315557 0.0959182
0 0.28835 0.200412
0.159915 0.393057 0.229084
0.184588 0.248554 0.170916
1 0.537331 0
1 0.32932 0
0 0.014847 0.0588693
0 0.00759899 0.0383459
0 0.00315862 0.0222629
0 0.000869764 0.0103914
0 0.00492866 0.0292668
0 0.038117 0.109117
0 0.0295567 0.105028
0 0.00311284 0.0220645
0.824781 0.951339 0
0 0.0301213 0.0932479
0 0.0180819 0.0669261
0 0.00972 0.0448768
0 0.00440986 0.0272679
0 0.00149538 0.0138399
0 0.00120546 0.000854505
0 0.00442512 0
0 0.00242618 0
0.00151064 0.00103761 0
0 0 0.643168
0 0 0.590661
0 0 0.57351
0 0 0.631556
0 0 0.642634
0 0 0.636179
0.340597 0 0.625528
0.68249 0 0.6748
0.949416 0 0.600122
0.0739605 0 0.472129
0.0782788 0 0.423087
0.074403 0 0.37528
0.0963607 0 0.380591
0 0 0.481819
0 0 0.502831
0.198779 0 0.552224
0.703441 0 0.657465
0.991867 0.0903944 0.57525
0.0210727 0 0.315251
0.0220493 0 0.270665
0.043122 0 0.299275
0 0 0.44303
0 0 0.440177
0 0 0.376501
0.163485 0 0.499916
0.766583 0 0.632471
0.803067 0.325628 0.555734
0 0 0.172457
0 0 0.133669
0 0 0.379644
0 0 0.54342
0 0 0.568231
0 0 0.490761
0.489784 0 0.641642
0.681437 0.54226 0.496849
0 0.913359 0.26656
0 0 0.0747692
0 0 0.0209964
0 0 0.300481
0 0 0.575906
0 0.357839 0.864897
0 0.265965 0.947738
0.291524 0.888029 0.0315251
0.34934 0.993729 0
0.631434 0.978637 0
0 0 0.11664
0 0.000595102 0.0152743
0 0 0.119036
0 0.103105 0.44651
0 0.7691 0.50602
0.699657 0.970748 0
0.943633 0.930327 0
1 0.867445 0
1 0.77438 0
0 0 0.101579
0 0 0.0463569
0 0.00131228 0.00337224
0 0.0205234 0.164706
0 0.388952 0.445716
0 0.996643 0
0.446281 0.948013 0
1 0.465293 0
1 0.254093 0
0 0.0120089 0.0513771
0 0.00579843 0.0323796
0 0.00218204 0.0177615
0 0.000411994 0.00740063
0 0.0430762 0.114916
0 0.348791 0.238758
0 0.573419 0.104234
0.252857 0.310353 0.202655
1 0 0.591302
0 0.0255436 0.0840925
0 0.014847 0.0588846
0 0.00759899 0.0383459
0 0.00315862 0.0222629
0 0.000869764 0.0103914
0 0.00621042 0.0337987
0 0.0493935 0.125597
0 0.0352941 0.126528
0 0.00399786 0.0256504
0 0 0.877302
0 0 0.819394
0 0 0.787335
0 0 0.790951
0 0 0.776211
0 0 0.761852
0.236683 0 0.741588
0.565988 0 0.701991
0.808545 0 0.75639
0 0 0.695811
0 0 0.643183
0 0 0.590631
0 0 0.573495
0 0 0.631418
0 0 0.642603
0 0 0.635996
0.383566 0 0.632715
0.774243 0 0.717708
0.0174258 0 0.52282
0.0740215 0 0.472145
0.0782788 0 0.423087
0.074403 0 0.375204
0.0963607 0 0.380591
0 0 0.481819
0 0 0.502846
0.257465 0 0.567483
0.787274 0 0.675807
0.0205386 0 0.36051
0.0210727 0 0.315251
0.0220493 0 0.270665
0.0523537 0 0.330358
0 0 0.479118
0 0 0.476188
0 0 0.386877
0.262531 0 0.537972
0.900771 0.204746 0.636301
0 0 0.22121
0 0 0.172442
0 0 0.133669
0 0 0.413382
0 0 0.601724
0 0 0.733974
0.0784314 0 0.577218
0.621332 0 0.749081
0.985779 0.750774 0
0 0 0.172915
0 0 0.0747845
0 0 0.0209964
0 0 0.335073
0 0.0352636 0.690333
0 0.812726 0.652247
0 0.874281 0.472374
1 0.788418 0
1 0.735012 0
0 0 0.198367
0 0 0.116625
0 0.000595102 0.0152743
0 0 0.131563
0 0.214954 0.491295
0 1 0.0881056
1 0.57409 0
1 0.396384 0
1 0.181415 0.080354
0 0 0.151965
0 0 0.101579
0 0 0.0463569
0 0.00131228 0.00337224
0 0.0272831 0.196445
0 0.565026 0.401312
0.818967 0.978897 0
1 0.889601 0
1 0 0.631968
0 0.020325 0.0873732
0 0.0120241 0.0513924
0 0.00579843 0.0323796
0 0.00218204 0.0177615
0 0.000411994 0.00740063
0 0.0593576 0.127092
0 0.423392 0.269947
0 0.7364 0
0.308507 0.390509 0.20798
0 0 1
0 0 0.982116
0 0 0.952926
0 0 0.927245
0 0 0.906462
0 0 0.888594
0.196323 0 0.865064
0.506493 0 0.822675
0.704585 0 0.821836
0 0 0.907958
0 0 0.877501
0 0 0.819486
0 0 0.787289
0 0 0.791074
0 0 0.776364
0 0 0.761852
0.236667 0 0.741527
0.581598 0 0.715389
0 0 0.747082
0 0 0.695872
0 0 0.643183
0 0 0.590631
0 0 0.573495
0 0 0.631418
0 0 0.642603
0 0 0.635996
0.426642 0 0.63975
0 0 0.573144
0.0173953 0 0.522866
0.0740215 0 0.472145
0.0782788 0 0.423087
0.074403 0 0.375204
0.0963607 0 0.380591
0 0 0.481819
0 0 0.502846
0.319356 0 0.583902
0.0212253 0 0.408148
0.0205081 0 0.360555
0.0210727 0 0.315251
0.0220493 0 0.270665
0.00959792 0 0.362493
0 0 0.513466
0 0 0.510628
0 0 0.397131
0.374685 0 0.572671
0 0 0.302281
0 0 0.221241
0 0 0.172442
0 0 0.133669
0 0 0.445258
0 0 0.657191
0 0 0.872801
0.260243 0 0.692409
0.756008 0 0.855833
0 0 0.28893
0 0 0.173037
0 0 0.0747845
0 0 0.0210117
0 0 0.368399
0 0.187472 0.797742
0 1 0
0.880812 0.907561 0
1 0.0564584 0.212009
0 0 0.251896
0 0 0.198367
0 0 0.11664
0 0.000595102 0.0152743
0 0 0.143221
0 0.277699 0.562646
0.841459 0.984405 0
1 0 0.568536
1 0 0.662425
0 0 0.200168
0 0 0.151965
0 0 0.101579
0 0 0.0463569
0 0.00131228 0.00337224
0 0.036347 0.222354
0 0.73608 0.358633
1 0.767498 0
1 0.586191 0
0 0 1
0 0 1
0 0 1
0 0 1
0 0 1
0 0 1
0.157168 0 0.983444
0.456397 0 0.97052
0.658 0 0.951782
0 0 1
0 0 1
0 0 0.982132
0 0 0.953063
0 0 0.927657
0 0 0.906371
0 0 0.888624
0.196429 0 0.86511
0.506508 0 0.82266
0 0 0.937667
0 0 0.907683
0 0 0.877501
0 0 0.819486
0 0 0.787289
0 0 0.791074
0 0 0.776364
0 0 0.761852
0.236759 0 0.741558
0 0 0.798276
0 0 0.74728
0 0 0.695872
0 0 0.643183
0 0 0.590631
0 0 0.573495
0 0 0.631418
0 0 0.642496
0 0 0.635996
0 0 0.623743
0 0 0.573281
0.0173953 0 0.522866
0.0740215 0 0.472145
0.0782788 0 0.423087
0.074403 0 0.375204
0.0963607 0 0.380591
0 0 0.481819
0 0 0.502876
0 0 0.478859
0.0212253 0 0.408148
0.0205081 0 0.360555
0.0210727 0 0.315251
0.0220493 0 0.270665
0 0 0.391379
0 0 0.545968
0 0 0.541588
0 0 0.407507
0 0 0.405356
0 0 0.302251
0 0 0.221241
0 0 0.172503
0 0 0.133669
0 0 0.476707
0 0 0.772915
0 0 1
0.34786 0 0.785321
0 0 0.370993
0 0 0.288899
0 0 0.173037
0 0 0.0747539
0 0 0.0209964
0 0 0.401083
0 0.498756 0.811704
1 0.746136 0
1 0.432456 0
0 0 0.304707
0 0 0.251881
0 0 0.198367
0 0 0.116625
0 0.000595102 0.0152743
0 0 0.153536
0 0.366018 0.622415
1 0.607843 0
1 0 0.796521
