FALSE_LUMA.cube
TITLE "Generated by Resolve"
LUT_3D_SIZE 5
0 0 0
0 0 0.146593
0 0 0.258549
0 0 0.344121
0 0 0.45655
0 0.0197147 0.0707866
0 0.00410468 0.116503
0 0 0.603037
0 0 0.72987
0 0.428992 0.70042
0 0.00157168 0.0143587
0 0.00445563 0
0.00151064 0.00106813 0
0 0.89427 0.325078
0 0.994186 0
0 0.0156405 0.060914
0 0.00340276 0.02327
0 0.00334173 0
0.00192264 0.00166323 0
0 0.981384 0
0 0.0601816 0.125093
0 0.0228122 0.0778821
0 0.00628672 0.0340734
0 0.000503548 0.00810254
0.0024567 0.00215152 0
0.012314 0 0.138506
0 0 0.280949
0.0233158 0 0.345617
0 0 0.377981
0 0 0.496056
0 0 0.228641
0 0 0.523781
0 0 0.646891
0 0.176028 0.733837
0.0325933 0.542763 0.526223
0 0.000442512 0.00772107
0 0.114656 0.171847
0 0.0781415 0.240024
0 0.958755 0
0.329122 0.994797 0
0 0.0101167 0.0460365
0 0.00157168 0.0143587
0 0.00445563 0
0.0015259 0.00102235 0
1 0.484016 0
0 0.0421149 0.113481
0 0.0156405 0.060914
0 0.00340276 0.02327
0 0.00334173 0
0.0018616 0.0016022 0
0.0787671 0 0.424399
0.0975357 0 0.38323
0 0 0.505211
0.583383 0 0.585077
0.683223 0 0.5196
0 0 0.134417
0 0 0.472587
0 0 0.443809
0.635172 0 0.717205
0.122683 0.600534 0.499397
0 0.000244144 0.016968
0 0.026154 0.378912
0 0.845533 0.39057
0 0.986786 0
0.53933 0.986862 0
0 0.00605783 0.0332494
0 0.000442512 0.00772107
0 0.289021 0.2009
0.185077 0.249012 0.171237
1 0.324895 0
0 0.0311437 0.0951858
0 0.0101167 0.0460365
0 0.00157168 0.0143587
0 0.00445563 0
0.00151064 0.000976577 0
0 0 0.878981
0 0 0.789761
0 0 0.778088
0.242161 0 0.743481
0.812741 0 0.75761
0.016022 0 0.52401
0.0787976 0 0.424491
0.0975357 0 0.3832
0 0 0.505379
0.787778 0 0.675929
0 0 0.223575
0 0 0.134401
0 0 0.60238
0.0804761 0 0.578149
0.988647 0.750408 0
0 0 0.201205
0 0.000244144 0.016968
0 0.21532 0.491951
1 0.572168 0
1 0.177218 0.0869154
0 0.020798 0.0918288
0 0.00605783 0.0332494
0 0.000442512 0.00773632
0 0.424781 0.26981
0.308598 0.391836 0.207355
0 0 1
0 0 1
0 0 1
0.166918 0 0.985046
0.66215 0 0.955184
0 0 0.938201
0 0 0.878294
0 0 0.789853
0 0 0.778073
0.242313 0 0.743511
0 0 0.625803
0.0161135 0 0.523842
0.0787823 0 0.42446
0.0975357 0 0.383215
0 0 0.50544
0 0 0.410681
0 0 0.223621
0 0 0.134401
0 0 0.773693
0.348928 0 0.786175
0 0 0.308263
0 0 0.201205
0 0.000244144 0.016968
0 0.367712 0.622675
1 0 0.796277
