FALSE_HEATMAP_v2.cube
TITLE "Generated by Resolve"
LUT_3D_SIZE 5
0 0 0
0 0 0.145571
0 0 0.257588
0 0 0.343328
0 0 0.455467
0 0.01944 0.070161
0 0.00396735 0.115984
0 0 0.602213
0 0 0.729305
0 0.427497 0.700389
0 0.00149538 0.0138399
0 0.00442512 0
0.00149538 0.00112917 0
0 0.893141 0.327886
0 0.994156 0
0 0.0150607 0.0594492
0 0.00325017 0.0225834
0 0.00340276 0
0.00199893 0.00172427 0
0 0.981079 0
0 0.057496 0.124178
0 0.022034 0.076112
0 0.00602731 0.0331426
0 0.000457771 0.00776684
0.00260929 0.00221256 0
0.0115206 0 0.133242
0 0 0.27866
0.0228428 0 0.345464
0 0 0.377356
0 0 0.495476
0 0 0.227405
0 0 0.523171
0 0 0.645899
0 0.171344 0.734112
0.0255741 0.541665 0.527184
0 0.000411994 0.00740063
0 0.113863 0.171756
0 0.0767529 0.240162
0 0.957702 0.00241093
0.321706 0.99501 0
0 0.00972 0.0448768
0 0.00149538 0.0138399
0 0.00442512 0
0.00151064 0.00108339 0
1 0.486122 0
0 0.0407568 0.111406
0 0.0150607 0.0594492
0 0.00325017 0.0225986
0 0.00340276 0
0.0019379 0.00167849 0
0.078294 0 0.423102
0.0963607 0 0.380636
0 0 0.502815
0.581323 0 0.583093
0.682658 0 0.519387
0 0 0.133669
0 0 0.471748
0 0 0.443626
0.634119 0 0.716411
0.123781 0.598962 0.499931
0 0.000595102 0.015259
0 0.025391 0.378454
0 0.84445 0.391241
0 0.986679 0
0.535393 0.987228 0
0 0.00579843 0.0323796
0 0.000411994 0.00740063
0 0.28835 0.200412
0.184588 0.248554 0.170916
1 0.32932 0
0 0.0301213 0.0932479
0 0.00972 0.0448768
0 0.00149538 0.0138399
0 0.00442512 0
0.00151064 0.00103761 0
0 0 0.877302
0 0 0.787335
0 0 0.776211
0.236683 0 0.741588
0.808545 0 0.75639
0.0174258 0 0.52282
0.0782788 0 0.423087
0.0963607 0 0.380591
0 0 0.502846
0.787274 0 0.675807
0 0 0.22121
0 0 0.133669
0 0 0.601724
0.0784314 0 0.577218
0.985779 0.750774 0
0 0 0.198367
0 0.000595102 0.0152743
0 0.214954 0.491295
1 0.57409 0
1 0.181415 0.080354
0 0.020325 0.0873732
0 0.00579843 0.0323796
0 0.000411994 0.00740063
0 0.423392 0.269947
0.308507 0.390509 0.20798
0 0 1
0 0 1
0 0 1
0.157168 0 0.983444
0.658 0 0.951782
0 0 0.937667
0 0 0.877501
0 0 0.787289
0 0 0.776364
0.236759 0 0.741558
0 0 0.623743
0.0173953 0 0.522866
0.0782788 0 0.423087
0.0963607 0 0.380591
0 0 0.502876
0 0 0.405356
0 0 0.221241
0 0 0.133669
0 0 0.772915
0.34786 0 0.785321
0 0 0.304707
0 0 0.198367
0 0.000595102 0.0152743
0 0.366018 0.622415
1 0 0.796521
