FALSE_LUMA.cube
TITLE "Generated by Resolve"
LUT_3D_SIZE 33
0 0 0
0 0 0.0105287
0 0 0.0303349
0 0 0.0527047
0 0 0.0738384
0 0 0.0947585
0 0 0.113436
0 0 0.130602
0 0 0.146593
0 0 0.161608
0 0 0.175799
0 0 0.18912
0 0 0.202914
0 0 0.216754
0 0 0.230625
0 0 0.244556
0 0 0.258549
0 0 0.272602
0 0 0.286687
0 0 0.297978
0 0 0.305745
0 0 0.314183
0 0 0.323369
0 0 0.333318
0 0 0.344121
0 0 0.355657
0 0 0.368032
0 0 0.381277
0 0 0.395285
0 0 0.409995
0 0 0.425284
0 0 0.440894
0 0 0.45655
0 0 0.0306096
0 0 0.0468299
0 0 0.101656
0 0 0.119677
0 0 0.136355
0 0 0.151934
0 0 0.166613
0 0 0.180133
0 0 0.193881
0 0 0.207706
0 0 0.221607
0 0 0.235538
0 0 0.249546
0 0 0.263584
0 0 0.277668
0 0 0.291279
0 0 0.30071
0 0 0.308751
0 0 0.317464
0 0 0.326894
0 0 0.337179
0 0 0.348226
0 0 0.360052
0 0 0.372732
0 0 0.386236
0 0 0.400473
0 0 0.415442
0 0 0.430884
0 0 0.446571
0 0 0.46215
0 0 0.477195
0 0 0.490623
0 0 0.502403
0 0.00122072 0.0562448
0 0 0.0757916
0 0 0.0957656
0 0 0.171603
0 0 0.184939
0 0 0.198672
0 0 0.212467
0 0 0.226368
0 0 0.240314
0 0 0.254337
0 0 0.268437
0 0 0.282567
0 0 0.295125
0 0 0.303548
0 0 0.311833
0 0 0.320851
0 0 0.330556
0 0 0.34107
0 0 0.352407
0 0 0.364553
0 0 0.377569
0 0 0.391318
0 0 0.405875
0 0 0.420966
0 0 0.4365
0 0 0.452171
0 0 0.467658
0 0 0.48217
0 0 0.494972
0 0 0.506203
0 0 0.516426
0 0 0.526696
0 0 0.542107
0 0.00662242 0.0691539
0 0.00231937 0.0939803
0 0 0.110292
0 0 0.126574
0 0 0.221805
0 0 0.245075
0 0 0.259083
0 0 0.273167
0 0 0.287297
0 0 0.298497
0 0 0.30634
0 0 0.314855
0 0 0.324178
0 0 0.334218
0 0 0.345022
0 0 0.35668
0 0 0.369131
0 0 0.382422
0 0 0.39646
0 0 0.411215
0 0 0.426505
0 0 0.4421
0 0 0.45774
0 0 0.473014
0 0 0.486931
0 0 0.499123
0 0 0.50985
0 0 0.519905
0 0 0.530999
0 0 0.547997
0 0 0.563058
0 0 0.578088
0 0 0.593256
0 0.0128328 0.0782483
0 0.0103456 0.10132
0 0.00610361 0.119966
0 0.000747692 0.132845
0 0 0.142611
0 0 0.255558
0 0 0.300954
0 0 0.309102
0 0 0.317876
0 0 0.327382
0 0 0.337713
0 0 0.348867
0 0 0.360815
0 0 0.373648
0 0 0.387198
0 0 0.401572
0 0 0.416556
0 0 0.431998
0 0 0.447639
0 0 0.463188
0 0 0.478126
0 0 0.491402
0 0 0.502983
0 0 0.513344
0 0 0.523384
0 0 0.53666
0 0 0.553323
0 0 0.56817
0 0 0.583185
0 0 0.598398
0 0 0.613855
0 0 0.62945
0 0 0.645258
0 0.0182193 0.086244
0 0.0174105 0.104784
0 0.0144198 0.124971
0 0.00979629 0.139467
0 0.00375372 0.148699
0 0 0.155108
0 0 0.273014
0 0 0.329992
0 0 0.352407
0 0 0.364752
0 0 0.377829
0 0 0.391745
0 0 0.406394
0 0 0.421653
0 0 0.437278
0 0 0.452964
0 0 0.468437
0 0 0.482902
0 0 0.495583
0 0 0.506676
0 0 0.516762
0 0 0.526925
0 0 0.542672
0 0 0.558312
0 0 0.57322
0 0 0.588373
0 0 0.603616
0 0 0.619058
0 0 0.634775
0 0 0.650584
0 0 0.666682
0 0 0.682872
0 0 0.699413
0 0.0221103 0.0865187
0 0.0227817 0.103655
0 0.0216983 0.120195
0 0.0184176 0.136477
0 0.0135195 0.14667
0 0.00697337 0.152255
0 0 0.154788
0 0 0.274403
0 0 0.34255
0 0 0.410391
0 0 0.426108
0 0 0.441947
0 0 0.457771
0 0 0.473213
0 0 0.487221
0 0 0.499382
0 0 0.510079
0 0 0.520043
0 0 0.531289
0 0 0.548333
0 0 0.563226
0 0 0.578332
0 0 0.593515
0 0 0.608789
0 0 0.624308
0 0 0.64007
0 0 0.655955
0 0 0.672099
0 0 0.688472
0 0 0.704952
0 0 0.721675
0 0 0.732876
0 0.0322118 0.735988
0 0.0229648 0.0807965
0 0.0258183 0.0962997
0 0.0260777 0.111315
0 0.0247044 0.123445
0 0.0212253 0.135698
0 0.0161746 0.141711
0 0.00975052 0.143008
0 0.000961318 0.141665
0 0 0.260945
0 0 0.339422
0 0 0.459419
0 0 0.490517
0 0 0.502525
0 0 0.513039
0 0 0.52311
0 0 0.536385
0 0 0.553155
0 0 0.568078
0 0 0.583261
0 0 0.598352
0 0 0.61387
0 0 0.629496
0 0 0.645228
0 0 0.661234
0 0 0.677455
0 0 0.693935
0 0 0.710491
0 0 0.726253
0 0 0.734264
0 0.0733806 0.735759
0 0.16788 0.733654
0 0.237064 0.728542
0 0.294438 0.720989
0 0.0197147 0.0707866
0 0.0247501 0.084596
0 0.0271458 0.0977798
0 0.0273442 0.109071
0 0.0255283 0.116991
0 0.0221256 0.122606
0 0.0172427 0.124651
0 0.0115969 0.121324
0 0.00410468 0.116503
0 0 0.235096
0 0 0.324666
0 0 0.468788
0 0 0.540169
0 0 0.556893
0 0 0.572229
0 0 0.58761
0 0 0.603037
0 0 0.618616
0 0 0.634348
0 0 0.650294
0 0 0.666346
0 0 0.682704
0 0 0.699214
0 0 0.715801
0 0 0.72987
0 0.00292973 0.734936
0 0.110689 0.735409
0 0.193805 0.732097
0 0.25864 0.725826
0 0.312871 0.717617
0 0.359426 0.708797
0 0.398077 0.702129
0 0.428992 0.70042
0 0.0141299 0.057023
0 0.0191043 0.0693675
0 0.0238651 0.0802319
0 0.0258335 0.0908522
0 0.0261997 0.0974136
0 0.0241398 0.101564
0 0.0207675 0.101091
0 0.0166781 0.0957656
0 0.0121462 0.0882429
0 0.00643931 0.0804608
0 0 0.198734
0 0 0.305272
0 0 0.453834
0 0 0.590112
0 0 0.622095
0 0 0.638331
0 0 0.654597
0 0 0.671031
0 0 0.687541
0 0 0.704158
0 0 0.720974
0 0 0.73225
0 0.038819 0.73521
0 0.142428 0.734325
0 0.217441 0.730083
0 0.27834 0.722942
0 0.32961 0.714488
0 0.373587 0.705989
0 0.409781 0.700587
0 0.457176 0.669078
0 0.50901 0.566232
0 0.53431 0.533776
0.0780804 0.554696 0.517952
0 0.00836194 0.0407874
0 0.012192 0.0518502
0 0.0160983 0.0620737
0 0.0195315 0.0703746
0 0.021912 0.0758526
0 0.0218204 0.0791638
0 0.0201572 0.0785687
0 0.0175021 0.0737774
0 0.0142214 0.0654765
0 0.0107271 0.054963
0 0.00695811 0.0450752
0 0 0.154406
0 0 0.277836
0 0 0.426123
0 0 0.60174
0 0 0.690394
0 0 0.707988
0 0 0.724743
0 0 0.733608
0 0.0714885 0.735271
0 0.167147 0.733318
0 0.237629 0.728008
0 0.295521 0.720241
0 0.344579 0.711528
0 0.386038 0.703838
0 0.420035 0.699809
0 0.482292 0.621775
0 0.518059 0.552132
0.0143282 0.54139 0.528099
0.0935531 0.56173 0.51429
0.113787 0.583291 0.504891
0.104417 0.606088 0.497002
0.071519 0.629786 0.489342
0 0.00378424 0.0248112
0 0.0061799 0.0336767
0 0.00889601 0.0424201
0 0.0115206 0.0500343
0 0.0135958 0.0556191
0 0.0146792 0.0584573
0 0.0145724 0.0581979
0 0.0133059 0.0548562
0 0.0111086 0.0488746
0 0.0084535 0.0410315
0 0.00584421 0.0325475
0 0.00352483 0.0237583
0 0 0.0993973
0 0 0.244068
0 0 0.396002
0 0 0.592569
0 0.0037232 0.734554
0 0.183246 0.732418
0 0.25211 0.726482
0 0.30901 0.718074
0 0.356741 0.70927
0 0.396811 0.702007
0 0.428428 0.699962
0 0.496498 0.591867
0 0.525872 0.54258
0.0456397 0.547738 0.523262
0.103395 0.568414 0.511284
0.111345 0.590677 0.502495
0.0940414 0.61384 0.494713
0.0552071 0.637629 0.486992
0.000259403 0.662013 0.478721
0 0.686534 0.469642
0 0.711147 0.459586
0 0.00115969 0.0118563
0 0.0021973 0.0178073
0 0.00363165 0.0242161
0 0.00521859 0.0303197
0 0.00665293 0.0352789
0 0.00759899 0.0383764
0 0.00784314 0.0391394
0 0.00732433 0.0374762
0 0.00616464 0.0336156
0 0.00463874 0.0281376
0 0.00309758 0.0219883
0 0.00167849 0.0149996
0 0.000564584 0.00859083
0 0 0.04094
0 0 0.22034
0 0 0.374197
0 0 0.576074
0 0.14342 0.734173
0 0.40238 0.701289
0 0.436805 0.697536
0 0.505104 0.575051
0 0.532219 0.536599
0.0664683 0.553338 0.519661
0.106966 0.574853 0.508766
0.10753 0.597406 0.500389
0.0829786 0.621088 0.492638
0.0384833 0.645136 0.484779
0 0.669734 0.476173
0 0.694408 0.466758
0 0.719173 0.456413
0 0.743694 0.445197
0 0.768078 0.433066
0 0.790173 0.421454
0 0.000259403 0.00584421
0 0.000396735 0.00737011
0 0.000869764 0.0103761
0 0.0015259 0.014023
0 0.00218204 0.017731
0 0.00273136 0.0203403
0 0.00299077 0.0214847
0 0.0028687 0.0209812
0 0.00241093 0.0188602
0 0.00175479 0.0154116
0 0.00106813 0.0114137
0 0.000366217 0.00703441
0.000183108 0.000839246 0
0.00140383 0.000686656 0
0 0 0.032166
0 0 0.208927
0 0 0.357
0 0 0.556649
0 0.141924 0.734295
0.0271458 0.544808 0.526101
0.108598 0.578958 0.507286
0.102953 0.602686 0.498833
0.0724041 0.626947 0.491005
0.0235599 0.651514 0.482811
0 0.676555 0.473869
0 0.701579 0.464134
0 0.726345 0.453452
0 0.751064 0.441871
0 0.775357 0.429526
0 0.796643 0.418265
0 0.817334 0.406546
0 0.837446 0.39469
0 0.857069 0.382101
0 0.000457771 0.00782788
0 0.000518807 0.00485237
0 0.00233463 0
0 0.00151064 0.000137331
0 0.000350958 0.00549325
0 0.000366217 0.0071107
0 0.00047303 0.00787366
0 0.000457771 0.00779736
0 0.000335698 0.00682078
0 0.00077821 0.00149538
0 0.00195315 0
0 0.00172427 0
0 0.00161746 0
0.000457771 0.00137331 0
0.00149538 0.000869764 0
0 0 0.0292973
0 0 0.199527
0 0 0.342519
0 0 0.532433
0 0.0604562 0.735302
0.109529 0.582269 0.50605
0 0.680125 0.472709
0 0.70663 0.462287
0 0.73196 0.451164
0 0.757092 0.439094
0 0.781048 0.426871
0 0.802441 0.415427
0 0.823133 0.403525
0 0.843244 0.391409
0 0.863142 0.376669
0 0.885222 0.34403
0 0.907897 0.28835
0 0.930327 0.204944
0 0.000946059 0.0108186
0 0.000564584 0.00857557
0 0.000289921 0.00646983
0 0.00202945 0
0 0.00607309 0
0 0.00595102 0
0 0.00535592 0
0 0.00463874 0
0 0.00389105 0
0 0.00302129 0
0 0.00267033 0
0 0.00238041 0
0 0.00207523 0
0 0.00178531 0
0.000488289 0.00148013 0
0.00151064 0.000961318 0
0 0 0.0261234
0 0 0.191211
0 0 0.33051
0 0 0.516045
0 0 0.732708
0.108934 0.592584 0.502312
0 0.774441 0.430411
0 0.806073 0.413657
0 0.827451 0.401312
0 0.847852 0.388876
0 0.868528 0.370733
0 0.891264 0.331594
0 0.914092 0.270069
0 0.936645 0.17229
0 0.957519 0.00321965
0 0.97232 0
0 0.982498 0
0 0.00157168 0.0143587
0 0.00111391 0.0115969
0 0.000686656 0.00932326
0 0.000381476 0.00715648
0 0.0010071 0.00192264
0 0.00552377 0
0 0.00556954 0
0 0.00520333 0
0 0.00445563 0
0 0.00349432 0
0 0.00300603 0
0 0.00271611 0
0 0.00244144 0
0 0.00215152 0
0 0.0018616 0
0.000564584 0.00157168 0
0.00151064 0.00106813 0
0 0.000732433 0.0224918
0 0 0.183673
0 0 0.320226
0 0 0.501198
0 0 0.718196
0.109972 0.583535 0.505547
0 0.819837 0.405875
0 0.89427 0.325078
0 0.918227 0.256245
0 0.94168 0.141451
0 0.961151 0
0 0.975799 0
0 0.983978 0
0 0.98851 0
0 0.991882 0
0 0.994186 0
0 0.00234989 0.0185702
0 0.00175479 0.0153964
0 0.00128176 0.0124056
0 0.000823987 0.0101015
0 0.00047303 0.00788891
0 0.000411994 0.00527962
0 0.00497444 0
0 0.00517281 0
0 0.00492866 0
0 0.00428778 0
0 0.00332647 0
0 0.00302129 0
0 0.0027924 0
0 0.00251774 0
0 0.00222782 0
0 0.0019379 0
0.000656138 0.00164797 0
0.00151064 0.00117494 0
0 0.00170901 0.0185245
0 0 0.176349
0 0 0.311772
0 0 0.48455
0 0 0.69366
0.092256 0.563226 0.514321
0 0.836881 0.395789
0 0.973388 0
0 0.984817 0
0 0.989364 0
0 0.992508 0
0 0.99472 0
0.130343 0.996002 0
0.271275 0.995666 0
0.367437 0.994202 0
0 0.00337224 0.0231174
0 0.00259403 0.0196841
0 0.0019379 0.0164645
0 0.00143435 0.0133974
0 0.000961318 0.0108644
0 0.000579843 0.00862135
0 0.00030518 0.00650034
0 0.00283818 0
0 0.00477607 0
0 0.00468452 0
0 0.00416571 0
0 0.00323491 0
0 0.00303655 0
0 0.0028687 0
0 0.00259403 0
0 0.00230411 0
0 0.00202945 0
0.000747692 0.00173953 0
0.00154116 0.00125124 0
0 0.00201419 0.0168917
0 0 0.16733
0 0 0.30457
0 0 0.465843
0 0 0.669352
0.00138857 0.540658 0.529763
0 0.836301 0.396063
0 0.989456 0
0.150332 0.996139 0
0.288991 0.995682 0
0.383749 0.993942 0
0.461234 0.991104 0
0.528344 0.987961 0
0.596963 0.982651 0
0 0.00463874 0.0281529
0 0.00366217 0.0243534
0 0.00283818 0.0208286
0 0.00215152 0.0175479
0 0.00158694 0.0144198
0 0.00111391 0.0116579
0 0.000686656 0.0093843
0 0.000381476 0.00720226
0 0.000961318 0.00163272
0 0.0043946 0
0 0.00444038 0
0 0.00404364 0
0 0.00320439 0
0 0.00303655 0
0 0.00292973 0
0 0.00265507 0
0 0.00238041 0
0 0.00210575 0
0.000823987 0.00181582 0
0.0016022 0.00131228 0
0 0.00190738 0.0162356
0 0 0.156817
0 0 0.29839
0 0 0.446998
0 0 0.645762
0 0.510613 0.565164
0 0.824002 0.403403
0 0.992981 0
0.519768 0.988525 0
0.606226 0.981979 0
0.681208 0.973236 0
0.750835 0.963424 0
0.814282 0.953109 0
0 0.0061799 0.0336919
0 0.00500496 0.0295109
0 0.0039826 0.0256199
0 0.00309758 0.0219883
0 0.00236515 0.0186465
0 0.00177005 0.0154726
0 0.00128176 0.0124666
0 0.000823987 0.0101472
0 0.00047303 0.00793469
0 0.00030518 0.0056611
0 0.00408942 0
0 0.00419623 0
0 0.00395209 0
0 0.00321965 0
0 0.00303655 0
0 0.00296025 0
0 0.00274662 0
0 0.00247196 0
0 0.00218204 0
0.000915541 0.00190738 0
0.00167849 0.00138857 0
0 0.00180056 0.0156405
0 0 0.144289
0 0 0.290654
0 0 0.429358
0 0 0.623255
0 0.428046 0.699825
0 0.803052 0.41529
0 0.993927 0
0.70454 0.970123 0
0.87921 0.942138 0
0.941299 0.930892 0
1 0.917967 0
0 0.00802625 0.0397345
0 0.00662242 0.0351873
0 0.00538643 0.0308995
0 0.0043183 0.0269169
0 0.0033875 0.0231937
0 0.00260929 0.0197604
0 0.00195315 0.0165408
0 0.00143435 0.0134585
0 0.000976577 0.0109255
0 0.000579843 0.00866712
0 0.00030518 0.00654612
0 0.00402838 0
0 0.00390631 0
0 0.00384527 0
0 0.00328069 0
0 0.00300603 0
0 0.00299077 0
0 0.00282292 0
0 0.00254826 0
1.5259e-05 0.00227359 0
0.0010071 0.00198367 0
0.00173953 0.00144961 0
0 0.00170901 0.0151522
0 0 0.129931
0 0 0.281437
0 0 0.413123
0 0 0.601938
0 0.378256 0.705089
0 0.779568 0.427848
0 0.993149 0
0.80032 0.95552 0
1 0.888747 0
1 0.865934 0
0 0.0102083 0.0462806
0 0.00854505 0.0413519
0 0.00708019 0.0366979
0 0.00578317 0.0323339
0 0.004654 0.0282444
0 0.00369268 0.0244297
0 0.00285344 0.0209049
0 0.00216678 0.0176242
0 0.0016022 0.0144961
0 0.00112917 0.0117037
0 0.000701915 0.00943008
0 0.000381476 0.00724804
0 0.000915541 0.00138857
0 0.00363165 0
0 0.0037232 0
0 0.00332647 0
0 0.00296025 0
0 0.00299077 0
0 0.00288396 0
0 0.00262455 0
0.000106813 0.00234989 0
0.00108339 0.00207523 0
0.00180056 0.0015259 0
0 0.00163272 0.0146639
0 0 0.112505
0 0 0.272663
0 0 0.398459
0 0 0.581994
0 0.312169 0.717464
0 0.751156 0.442267
0 0.990875 0
0.837278 0.949111 0
1 0.831968 0
0 0.012726 0.0533455
0 0.0108186 0.0480354
0 0.00909438 0.0429999
0 0.00756847 0.0382544
0 0.00621042 0.0337835
0 0.00502022 0.0296025
0 0.00399786 0.0256962
0 0.0031281 0.0220798
0 0.00238041 0.0187228
0 0.00178531 0.0155337
0 0.00129702 0.0125277
0 0.000839246 0.010193
0 0.000488289 0.00798047
0 0.000244144 0.00590524
0 0.00335698 0
0 0.00355535 0
0 0.00337224 0
0 0.00289921 0
0 0.00297551 0
0 0.00291447 0
0 0.00270085 0
0.000183108 0.00244144 0
0.00115969 0.00215152 0
0.0018616 0.00158694 0
0 0.00154116 0.0141604
0 0 0.0908675
0 0 0.264698
0 0 0.385443
0 0 0.563195
0 0.228656 0.728923
0 0.716167 0.458289
0 0.986908 0
0.836774 0.949233 0
0 0.0156405 0.060914
0 0.0134432 0.0552224
0 0.0114443 0.0498054
0 0.00965896 0.0446937
0 0.00807202 0.0398413
0 0.00665293 0.0352789
0 0.00541695 0.0309911
0 0.00433356 0.0269932
0 0.00340276 0.02327
0 0.00262455 0.0198367
0 0.00196841 0.0166018
0 0.00144961 0.0135348
0 0.000976577 0.0109712
0 0.000595102 0.0087129
0 0.00030518 0.0065919
0 0.00334173 0
0 0.00334173 0
0 0.00337224 0
0 0.00292973 0
0 0.00296025 0
0 0.00294499 0
0 0.0027924 0
0.000274662 0.00250248 0
0.00125124 0.00224308 0
0.00192264 0.00166323 0
0 0.00149538 0.0138247
0 0 0.0786603
0 0 0.257099
0 0 0.373861
0 0 0.54522
0 0.119371 0.734829
0 0.679759 0.472938
0 0.981384 0
0 0.0189517 0.068986
0 0.016434 0.0629129
0 0.0141604 0.0571298
0 0.0121004 0.0516213
0 0.0102541 0.0464027
0 0.00859083 0.0414588
0 0.0071107 0.0368048
0 0.00581369 0.0324254
0 0.00468452 0.0283207
0 0.00370794 0.024506
0 0.0028687 0.0209812
0 0.00216678 0.0176852
0 0.00161746 0.0145571
0 0.00114443 0.0117494
0 0.000701915 0.00947585
0 0.000396735 0.00729381
0 0.000869764 0.00120546
0 0.00311284 0
0 0.00331121 0
0 0.00297551 0
0 0.00291447 0
0 0.00294499 0
0 0.00285344 0
0.000381476 0.00259403 0
0.00135805 0.00231937 0
0.00198367 0.00172427 0
0 0.00143435 0.0134737
0 0 0.0746014
0 0 0.249516
0 0 0.363516
0 0 0.52723
0 0 0.733928
0.0404669 0.643259 0.485801
0 0.0226749 0.0775769
0 0.019852 0.0711223
0 0.0172732 0.0649577
0 0.0149233 0.0590677
0 0.0127871 0.0534676
0 0.0108644 0.0481575
0 0.0091249 0.043122
0 0.00759899 0.0383612
0 0.00624094 0.0338903
0 0.00505074 0.0296941
0 0.00402838 0.0257725
0 0.00314336 0.0221408
0 0.00239567 0.0187839
0 0.00178531 0.0155947
0 0.00131228 0.0125887
0 0.000839246 0.0102388
0 0.000488289 0.00802625
0 0.000244144 0.00595102
0 0.00285344 0
0 0.00320439 0
0 0.00297551 0
0 0.00285344 0
0 0.00294499 0
0 0.00288396 0
0.000488289 0.00267033 0
0.00146487 0.00239567 0
0.00204471 0.00178531 0
0 0.00138857 0.013138
0 0 0.0704356
0 0 0.240986
0 0 0.354238
0 0 0.516457
0 0 0.721355
0 0.0268559 0.0868238
0 0.0236973 0.0798352
0 0.0207828 0.0732891
0 0.0181277 0.0670329
0 0.0157015 0.0610513
0 0.013489 0.0553445
0 0.01149 0.0499275
0 0.00970474 0.0448005
0 0.00810254 0.0399481
